icons/svg/seamark/notice_information_berthingpermitted.svg

<?xml version="1.0" encoding="UTF-8" standalone="no"?>
<svg
   xmlns:dc="http://purl.org/dc/elements/1.1/"
   xmlns:cc="http://creativecommons.org/ns#"
   xmlns:rdf="http://www.w3.org/1999/02/22-rdf-syntax-ns#"
   xmlns:svg="http://www.w3.org/2000/svg"
   xmlns="http://www.w3.org/2000/svg"
   xmlns:sodipodi="http://sodipodi.sourceforge.net/DTD/sodipodi-0.dtd"
   xmlns:inkscape="http://www.inkscape.org/namespaces/inkscape"
   width="320"
   height="320"
   id="svg2"
   version="1.1"
   inkscape:version="0.48.4 r9939"
   sodipodi:docname="notice_information_ferryindependent.svg">
  <defs
     id="defs13">
    <inkscape:path-effect
       effect="gears"
       id="path-effect3774"
       is_visible="true"
       teeth="6"
       phi="-1.2" />
    <inkscape:path-effect
       effect="bend_path"
       id="path-effect3772"
       is_visible="false"
       bendpath="m 95.790098,316.51174 c 144.429032,-206.42506 223.313032,-11.7428 339.548092,0"
       prop_scale="1.19"
       scale_y_rel="false"
       vertical="false"
       bendpath-nodetypes="cc" />
  </defs>
  <sodipodi:namedview
     pagecolor="#ffffff"
     bordercolor="#666666"
     borderopacity="1"
     objecttolerance="10"
     gridtolerance="10"
     guidetolerance="10"
     inkscape:pageopacity="0"
     inkscape:pageshadow="2"
     inkscape:window-width="1920"
     inkscape:window-height="1004"
     id="namedview11"
     showgrid="true"
     inkscape:zoom="1.6275861"
     inkscape:cx="212.2765"
     inkscape:cy="174.9493"
     inkscape:window-x="1680"
     inkscape:window-y="0"
     inkscape:window-maximized="1"
     inkscape:current-layer="svg2"
     inkscape:snap-bbox="true"
     inkscape:object-nodes="true"
     inkscape:snap-midpoints="true"
     inkscape:snap-grids="true"
     inkscape:snap-bbox-edge-midpoints="true"
     showguides="true"
     inkscape:guide-bbox="true"
     inkscape:snap-global="true">
    <inkscape:grid
       type="xygrid"
       id="grid2990"
       empspacing="5"
       visible="true"
       enabled="true"
       snapvisiblegridlinesonly="true"
       spacingx="10px"
       spacingy="10px"
       dotted="false" />
    <sodipodi:guide
       orientation="1,0"
       position="55.202458,260.58927"
       id="guide3872" />
    <sodipodi:guide
       orientation="1,0"
       position="265.17816,340"
       id="guide3874" />
    <sodipodi:guide
       orientation="0,1"
       position="317.80107,264.96094"
       id="guide3876" />
    <sodipodi:guide
       orientation="0,1"
       position="325.098,54.759006"
       id="guide3878" />
  </sodipodi:namedview>
  <metadata
     id="metadata2975">image/svg+xmlen<rdf:RDF>
  <cc:Work
     rdf:about="">
    <dc:format>image/svg+xml</dc:format>
    <dc:type
       rdf:resource="http://purl.org/dc/dcmitype/StillImage" />
    <dc:title></dc:title>
  </cc:Work>
</rdf:RDF>
</metadata>
  <path
     style="font-size:143.53205872px;font-style:normal;font-variant:normal;font-weight:normal;font-stretch:normal;text-indent:0;text-align:start;text-decoration:none;line-height:normal;letter-spacing:normal;word-spacing:normal;text-transform:none;direction:ltr;block-progression:tb;writing-mode:lr-tb;text-anchor:start;baseline-shift:baseline;color:#000000;fill:#fefefe;fill-opacity:1;fill-rule:nonzero;stroke:none;stroke-width:0;marker:none;visibility:visible;display:inline;overflow:visible;enable-background:accumulate;font-family:Bitstream Vera Sans;-inkscape-font-specification:Sans"
     d="m 111.98438,93.51908 c -4.28593,0.004 -8.18368,3.80219 -8.1875,7.97893 l 0,117.00403 c 0.004,4.17674 3.90157,7.9752 8.1875,7.97893 l 15.25,0 c 4.28591,-0.004 8.18366,-3.80219 8.18749,-7.97893 l 0,-39.59012 29.40625,0 c 17.49312,0 31.38512,-3.55518 39.96875,-13.03429 7.53497,-8.32114 11.40612,-18.96733 11.40625,-30.54529 -1.3e-4,-6.84391 -1.41279,-13.41574 -4.28125,-19.36871 -2.81856,-5.84867 -6.79386,-10.80701 -11.875,-14.37426 -4.97595,-3.49296 -10.92235,-5.6935 -17.5,-6.82168 -0.0429,-0.007 -0.082,-0.0232 -0.125,-0.0305 -4.94837,-0.90096 -11.06829,-1.21804 -18.9375,-1.21816 z m 23.43749,29.7535 29.3125,0 c 6.61515,10e-5 11.25319,0.5576 12.03125,0.76134 0.003,8.3e-4 0.0282,-8.1e-4 0.0312,0 2.17627,0.62792 3.55683,1.60793 5.03125,3.71539 1.43271,2.04808 2.24994,4.46644 2.25,8.07029 -6e-5,5.16849 -1.26621,7.74375 -3.59375,9.83662 -1.76205,1.58441 -6.63785,3.4718 -15.4375,3.47175 l -29.625,0 0,-25.85539 z"
     id="text2419"
     inkscape:connector-curvature="0"
     sodipodi:nodetypes="cccccccsscccccccccccccssccc" />
</svg>

<svg width="320" height="320" viewBox="0 0 320 320" fill="none" xmlns="http://www.w3.org/2000/svg">
<path d="M111.984 93.5186C107.698 93.5226 103.801 97.3208 103.797 101.498V218.502C103.801 222.678 107.698 226.477 111.984 226.48H127.234C131.52 226.476 135.418 222.678 135.422 218.502V178.911H164.828C182.321 178.911 196.213 175.356 204.797 165.877C212.332 157.556 216.203 146.91 216.203 135.332C216.203 128.488 214.79 121.916 211.922 115.963C209.103 110.114 205.128 105.156 200.047 101.589C195.071 98.0959 189.125 95.8954 182.547 94.7672C182.504 94.7602 182.465 94.744 182.422 94.7367C177.473 93.8358 171.354 93.5187 163.484 93.5186L111.984 93.5186ZM135.422 123.272H164.734C171.35 123.272 175.988 123.83 176.766 124.033C176.769 124.034 176.794 124.033 176.797 124.033C178.973 124.661 180.354 125.641 181.828 127.749C183.261 129.797 184.078 132.215 184.078 135.819C184.078 140.988 182.812 143.563 180.484 145.656C178.722 147.24 173.846 149.128 165.047 149.128H135.422V123.272H135.422Z" fill="#FEFEFE"/>
</svg>
